Sources/FrostedUI/Resources/Icons.xcassets/verifiedCheck32.imageset/verified-check-32.svg

<svg
  width="32"
  height="32"
  viewBox="0 0 32 32"
  fill="none"
  xmlns="http://www.w3.org/2000/svg"
  data-fui-icon="true"
>
  <path
    d="M20.7638 4.49927L20.1146 4.87491C20.2844 5.16824 20.6297 5.31129 20.9572 5.2239L20.7638 4.49927ZM11.2363 4.49925L11.0429 5.22388C11.3703 5.31127 11.7157 5.16822 11.8854 4.87489L11.2363 4.49925ZM5.92374 5.92372L5.39341 5.39339L5.39341 5.39339L5.92374 5.92372ZM4.49927 11.2362L4.87491 11.8854C5.16824 11.7156 5.31129 11.3703 5.2239 11.0428L4.49927 11.2362ZM4.49927 20.7638L5.2239 20.9572C5.31129 20.6297 5.16824 20.2844 4.87491 20.1146L4.49927 20.7638ZM5.92373 26.0763L6.45406 25.546L5.92373 26.0763ZM11.2363 27.5008L11.8854 27.1251C11.7157 26.8318 11.3703 26.6887 11.0429 26.7761L11.2363 27.5008ZM20.7638 27.5008L20.9572 26.7761C20.6297 26.6887 20.2844 26.8318 20.1146 27.1251L20.7638 27.5008ZM27.5007 20.7638L27.1251 20.1146C26.8318 20.2844 26.6887 20.6297 26.7761 20.9572L27.5007 20.7638ZM27.5008 11.2362L26.7761 11.0428C26.6887 11.3703 26.8318 11.7156 27.1251 11.8854L27.5008 11.2362ZM26.0763 5.92374L26.6066 5.39341V5.39341L26.0763 5.92374ZM21.4129 4.12362C20.3333 2.25791 18.314 1 16 1V2.5C17.757 2.5 19.2921 3.45353 20.1146 4.87491L21.4129 4.12362ZM16 1C13.686 1 11.6668 2.2579 10.5871 4.1236L11.8854 4.87489C12.7079 3.45352 14.2431 2.5 16 2.5V1ZM11.4296 3.77461C9.34697 3.21877 7.02964 3.75716 5.39341 5.39339L6.45407 6.45405C7.69643 5.21169 9.45618 4.80042 11.0429 5.22388L11.4296 3.77461ZM5.39341 5.39339C3.75718 7.02962 3.2188 9.34695 3.77463 11.4296L5.2239 11.0428C4.80044 9.45616 5.21171 7.69641 6.45407 6.45405L5.39341 5.39339ZM4.12362 10.5871C2.25791 11.6667 1 13.686 1 16H2.5C2.5 14.243 3.45352 12.7079 4.87491 11.8854L4.12362 10.5871ZM1 16C1 18.314 2.25791 20.3333 4.12362 21.4129L4.87491 20.1146C3.45352 19.2921 2.5 17.757 2.5 16H1ZM3.77463 20.5704C3.21879 22.6531 3.75717 24.9704 5.3934 26.6066L6.45406 25.546C5.2117 24.3036 4.80043 22.5439 5.2239 20.9572L3.77463 20.5704ZM5.3934 26.6066C7.02964 28.2429 9.34698 28.7813 11.4297 28.2254L11.0429 26.7761C9.45619 27.1996 7.69643 26.7883 6.45406 25.546L5.3934 26.6066ZM10.5871 27.8764C11.6668 29.7421 13.6861 31 16 31V29.5C14.2431 29.5 12.7079 28.5465 11.8854 27.1251L10.5871 27.8764ZM16 31C18.314 31 20.3333 29.7421 21.4129 27.8764L20.1146 27.1251C19.2921 28.5465 17.757 29.5 16 29.5V31ZM20.5704 28.2254C22.6531 28.7812 24.9704 28.2428 26.6066 26.6066L25.5459 25.546C24.3036 26.7883 22.5438 27.1996 20.9572 26.7761L20.5704 28.2254ZM26.6066 26.6066C28.2428 24.9704 28.7812 22.6531 28.2254 20.5704L26.7761 20.9572C27.1996 22.5438 26.7883 24.3036 25.5459 25.546L26.6066 26.6066ZM27.8764 21.4129C29.7421 20.3333 31 18.314 31 16H29.5C29.5 17.757 28.5465 19.2921 27.1251 20.1146L27.8764 21.4129ZM31 16C31 13.686 29.7421 11.6667 27.8764 10.5871L27.1251 11.8854C28.5465 12.7079 29.5 14.243 29.5 16H31ZM25.546 6.45407C26.7883 7.69643 27.1996 9.45617 26.7761 11.0428L28.2254 11.4296C28.7812 9.34696 28.2429 7.02964 26.6066 5.39341L25.546 6.45407ZM20.9572 5.2239C22.5439 4.80045 24.3036 5.21171 25.546 6.45407L26.6066 5.39341C24.9704 3.75718 22.6531 3.2188 20.5704 3.77463L20.9572 5.2239Z"
    fill="currentColor"
  />
  <path
    d="M10 16L14 20.25L22 12"
    stroke="currentColor"
    stroke-width="1.5"
    stroke-linecap="round"
    stroke-linejoin="round"
  />
</svg>

<svg xmlns="http://www.w3.org/2000/svg" width="32" height="32" fill="none" data-fui-icon="true" viewBox="0 0 32 32"><path fill="currentColor" d="m20.764 4.5-.65.375a.75.75 0 0 0 .843.349zm-9.528 0-.193.724a.75.75 0 0 0 .842-.35zM5.924 5.923l-.53-.53zm-1.425 5.312.376.65a.75.75 0 0 0 .349-.843zm0 9.528.725.193a.75.75 0 0 0-.35-.842zm1.425 5.312.53-.53zm5.312 1.425.65-.376a.75.75 0 0 0-.843-.349zm9.528 0 .193-.725a.75.75 0 0 0-.842.35zm6.737-6.737-.376-.65a.75.75 0 0 0-.349.843zm0-9.528-.725-.193a.75.75 0 0 0 .35.842zm-1.425-5.312.53-.53zm-4.663-1.8A6.25 6.25 0 0 0 16 1v1.5c1.757 0 3.292.954 4.115 2.375zM16 1a6.25 6.25 0 0 0-5.413 3.124l1.298.75A4.75 4.75 0 0 1 16 2.5zm-4.57 2.775a6.25 6.25 0 0 0-6.037 1.618l1.061 1.061a4.75 4.75 0 0 1 4.589-1.23zM5.393 5.393a6.25 6.25 0 0 0-1.618 6.037l1.449-.387a4.75 4.75 0 0 1 1.23-4.589zm-1.27 5.194A6.25 6.25 0 0 0 1 16h1.5c0-1.757.954-3.292 2.375-4.115zM1 16a6.25 6.25 0 0 0 3.124 5.413l.75-1.298A4.75 4.75 0 0 1 2.5 16zm2.775 4.57a6.25 6.25 0 0 0 1.618 6.037l1.061-1.061a4.75 4.75 0 0 1-1.23-4.589zm1.618 6.037a6.25 6.25 0 0 0 6.037 1.618l-.387-1.449a4.75 4.75 0 0 1-4.589-1.23zm5.194 1.27A6.25 6.25 0 0 0 16 31v-1.5a4.75 4.75 0 0 1-4.115-2.375zM16 31a6.25 6.25 0 0 0 5.413-3.124l-1.298-.75A4.75 4.75 0 0 1 16 29.5zm4.57-2.775c2.083.556 4.4.018 6.037-1.618l-1.061-1.061a4.75 4.75 0 0 1-4.589 1.23zm6.037-1.618a6.25 6.25 0 0 0 1.618-6.037l-1.449.387a4.75 4.75 0 0 1-1.23 4.589zm1.27-5.194A6.25 6.25 0 0 0 31 16h-1.5a4.75 4.75 0 0 1-2.375 4.115zM31 16a6.25 6.25 0 0 0-3.124-5.413l-.75 1.298A4.75 4.75 0 0 1 29.5 16zm-5.454-9.546a4.75 4.75 0 0 1 1.23 4.589l1.45.387a6.25 6.25 0 0 0-1.62-6.037zm-4.589-1.23a4.75 4.75 0 0 1 4.589 1.23l1.06-1.06a6.25 6.25 0 0 0-6.036-1.62z"/><path stroke="currentColor" stroke-linecap="round" stroke-linejoin="round" stroke-width="1.5" d="m10 16 4 4.25L22 12"/></svg>
